SVG-Logos/Observability/Grafana/Icons/grafana-k6-icon.svg

<svg xmlns="http://www.w3.org/2000/svg" viewBox="0 0 107 95" fill="none">
<rect x="34.5605" y="42.0891" width="46.2977" height="44.1933" fill="white"/>
<path d="M68.1626 72.9864C70.5006 72.9864 72.3959 71.0991 72.3959 68.771C72.3959 66.4429 70.5006 64.5557 68.1626 64.5557C65.8245 64.5557 63.9292 66.4429 63.9292 68.771C63.9292 71.0991 65.8245 72.9864 68.1626 72.9864Z" fill="#7D64FF"/>
<path d="M84.1736 0L58.0323 35.5288L36.0946 19.5931L0.88916 94.6999H106.111L84.1736 0ZM50.6874 78.2223L44.4345 69.6534V78.2223H38.6471V46.3784L44.4345 50.5631V66.6845L52.1335 56.1323L56.5241 59.31L50.0615 68.1674L57.3966 78.2192H50.6874V78.2223ZM68.1635 78.5784C62.7215 78.5784 58.3124 74.185 58.3124 68.7692C58.3124 66.6109 59.0123 64.6183 60.1994 62.9973L70.0782 49.4547L74.4688 52.6323L69.7576 59.092C74.4411 59.8503 78.0146 63.8938 78.0146 68.7723C78.0146 74.185 73.6055 78.5784 68.1635 78.5784Z" fill="#7D64FF"/>
</svg>

<svg xmlns="http://www.w3.org/2000/svg" fill="none" viewBox="0 0 107 95"><path fill="#fff" d="M34.56 42.089h46.298v44.193H34.56z"/><path fill="#7D64FF" d="M68.163 72.986c2.338 0 4.233-1.887 4.233-4.215s-1.895-4.215-4.233-4.215c-2.338 0-4.234 1.887-4.234 4.215s1.895 4.215 4.234 4.215Z"/><path fill="#7D64FF" d="M84.174 0 58.032 35.529 36.095 19.593.889 94.7h105.222L84.174 0ZM50.687 78.222l-6.252-8.569v8.57h-5.788V46.377l5.788 4.185v16.121l7.698-10.552 4.391 3.178-6.462 8.857 7.335 10.052h-6.71v.003Zm17.477.356c-5.443 0-9.852-4.393-9.852-9.809 0-2.158.7-4.15 1.887-5.772l9.88-13.542 4.39 3.177-4.711 6.46c4.683.758 8.257 4.802 8.257 9.68 0 5.413-4.41 9.806-9.852 9.806Z"/></svg>
